icons/arrow/up-right.svg

<svg width="32" height="32" viewBox="0 0 32 32" fill="none" xmlns="http://www.w3.org/2000/svg">
<path fill-rule="evenodd" clip-rule="evenodd" d="M23.6668 7.33334H10.6668V9.33334H21.2526L5.62634 24.9596L7.04056 26.3738L22.6668 10.7476L22.6668 21.3333H24.6668L24.6668 8.33334V7.33334H23.6668Z" fill="black"/>
</svg>

<svg width="32" height="32" viewBox="0 0 32 32" xmlns="http://www.w3.org/2000/svg">
    <path fill-rule="evenodd" d="M23.667 7.333h-13v2h10.586L5.626 24.96l1.415 1.414 15.626-15.626v10.585h2v-14h-1z"/>
</svg>
